static/img/kroki/90779507e652751ffce6777c79dc89fb.svg

<?xml version="1.0" encoding="us-ascii" standalone="no"?><svg xmlns="http://www.w3.org/2000/svg" xmlns:xlink="http://www.w3.org/1999/xlink" contentStyleType="text/css" height="252px" preserveAspectRatio="none" style="width:276px;height:252px;" version="1.1" viewBox="0 0 276 252" width="276px" zoomAndPan="magnify"><defs/><g><!--class aws_ec2_instance--><g id="elem_aws_ec2_instance"><rect codeLine="22" fill="#3D176E" height="39.7891" id="aws_ec2_instance" rx="2.5" ry="2.5" style="stroke:#000D19;stroke-width:0.5;" width="192" x="7" y="106.79"/><ellipse cx="22" cy="126.6845" fill="#ADD1B2" rx="11" ry="11" style="stroke:#181818;stroke-width:1.0;"/><path d="M24.9688,132.3252 Q24.3906,132.622 23.75,132.7627 Q23.1094,132.9189 22.4063,132.9189 Q19.9063,132.9189 18.5781,131.2783 Q17.2656,129.622 17.2656,126.497 Q17.2656,123.372 18.5781,121.7158 Q19.9063,120.0595 22.4063,120.0595 Q23.1094,120.0595 23.75,120.2158 Q24.4063,120.372 24.9688,120.6689 L24.9688,123.3877 Q24.3438,122.8095 23.75,122.5439 Q23.1563,122.2627 22.5313,122.2627 Q21.1875,122.2627 20.5,123.3408 Q19.8125,124.4033 19.8125,126.497 Q19.8125,128.5908 20.5,129.6689 Q21.1875,130.7314 22.5313,130.7314 Q23.1563,130.7314 23.75,130.4658 Q24.3438,130.1845 24.9688,129.6064 L24.9688,132.3252 Z " fill="#000000"/><text fill="#D9B8FF" font-family="Helvetica" font-size="17" lengthAdjust="spacing" textLength="150" x="41" y="132.5698">aws_ec2_instance</text></g><!--class aws_ec2_keypair--><g id="elem_aws_ec2_keypair"><rect codeLine="24" fill="#3D176E" height="39.7891" id="aws_ec2_keypair" rx="2.5" ry="2.5" style="stroke:#000D19;stroke-width:0.5;" width="184" x="85" y="206.58"/><ellipse cx="100" cy="226.4745" fill="#ADD1B2" rx="11" ry="11" style="stroke:#181818;stroke-width:1.0;"/><path d="M102.9688,232.1152 Q102.3906,232.412 101.75,232.5527 Q101.1094,232.7089 100.4063,232.7089 Q97.9063,232.7089 96.5781,231.0683 Q95.2656,229.412 95.2656,226.287 Q95.2656,223.162 96.5781,221.5058 Q97.9063,219.8495 100.4063,219.8495 Q101.1094,219.8495 101.75,220.0058 Q102.4063,220.162 102.9688,220.4589 L102.9688,223.1777 Q102.3438,222.5995 101.75,222.3339 Q101.1563,222.0527 100.5313,222.0527 Q99.1875,222.0527 98.5,223.1308 Q97.8125,224.1933 97.8125,226.287 Q97.8125,228.3808 98.5,229.4589 Q99.1875,230.5214 100.5313,230.5214 Q101.1563,230.5214 101.75,230.2558 Q102.3438,229.9745 102.9688,229.3964 L102.9688,232.1152 Z " fill="#000000"/><text fill="#D9B8FF" font-family="Helvetica" font-size="17" lengthAdjust="spacing" textLength="142" x="119" y="232.3598">aws_ec2_keypair</text></g><!--class aws_region--><g id="elem_aws_region"><rect codeLine="26" fill="#3D176E" height="39.7891" id="aws_region" rx="2.5" ry="2.5" style="stroke:#000D19;stroke-width:0.5;" width="137" x="108.5" y="7"/><ellipse cx="123.5" cy="26.8945" fill="#ADD1B2" rx="11" ry="11" style="stroke:#181818;stroke-width:1.0;"/><path d="M126.4688,32.5352 Q125.8906,32.832 125.25,32.9727 Q124.6094,33.1289 123.9063,33.1289 Q121.4063,33.1289 120.0781,31.4883 Q118.7656,29.832 118.7656,26.707 Q118.7656,23.582 120.0781,21.9258 Q121.4063,20.2695 123.9063,20.2695 Q124.6094,20.2695 125.25,20.4258 Q125.9063,20.582 126.4688,20.8789 L126.4688,23.5977 Q125.8438,23.0195 125.25,22.7539 Q124.6563,22.4727 124.0313,22.4727 Q122.6875,22.4727 122,23.5508 Q121.3125,24.6133 121.3125,26.707 Q121.3125,28.8008 122,29.8789 Q122.6875,30.9414 124.0313,30.9414 Q124.6563,30.9414 125.25,30.6758 Q125.8438,30.3945 126.4688,29.8164 L126.4688,32.5352 Z " fill="#000000"/><text fill="#D9B8FF" font-family="Helvetica" font-size="17" lengthAdjust="spacing" textLength="95" x="142.5" y="32.7798">aws_region</text></g><!--link aws_ec2_instance to aws_ec2_keypair--><g id="link_aws_ec2_instance_aws_ec2_keypair"><path codeLine="28" d="M117.62,147.01 C129.48,162.68 146.25,184.84 158.95,201.62 " fill="none" id="aws_ec2_instance-to-aws_ec2_keypair" style="stroke:#1A83AF;stroke-width:2.0;"/><polygon fill="#1A83AF" points="162.41,205.2,160.1716,195.6089,159.394,201.212,153.7909,200.4345,162.41,205.2" style="stroke:#1A83AF;stroke-width:2.0;"/></g><!--link aws_region to aws_ec2_instance--><g id="link_aws_region_aws_ec2_instance"><path codeLine="29" d="M162.38,47.22 C150.52,62.89 133.75,85.05 121.05,101.83 " fill="none" id="aws_region-to-aws_ec2_instance" style="stroke:#1A83AF;stroke-width:2.0;"/><polygon fill="#1A83AF" points="117.59,105.41,126.22,100.6641,120.6151,101.4289,119.8502,95.824,117.59,105.41" style="stroke:#1A83AF;stroke-width:2.0;"/></g><!--link aws_region to aws_ec2_keypair--><g id="link_aws_region_aws_ec2_keypair"><path codeLine="30" d="M189.92,47 C199.51,62.39 211.79,84.99 217,106.79 C221.11,123.99 221.11,129.38 217,146.58 C212.32,166.17 201.93,186.4 192.92,201.47 " fill="none" id="aws_region-to-aws_ec2_keypair" style="stroke:#1A83AF;stroke-width:2.0;"/><polygon fill="#1A83AF" points="189.92,205.37,198.03,199.7817,192.5301,201.1054,191.2065,195.6055,189.92,205.37" style="stroke:#1A83AF;stroke-width:2.0;"/></g><!--SRC=[XP1BQyCm48Jl_XK2dmDnJ1lxKd0CeRs4qlHMIjXOArlObinAQKXB_tlhF8egvt7T-NPsPYl9aM7RsHrhiLqZcS3KKdL0qBACI6zptMXYeH0WugalphMoDu45jCWUiVb0AmlmYTTA5hL2OzZ4aMPGr2NfZU87UqkWpA-4oZfKte0ncRKarnkBJXYUhXCXVD8t3MCUJUznW6dYI4TaF1xpAFMHcwUkzluZbl8JMUG-RQ4j3c8EJkofgobxmWavA7hIBsPy1iwbAjcTCtivP2A5z6- -h83hRKyBQ8nxnbWar7RNOJveXMd2nVGi_7G9BlhFCTYQ5HQJbLJ6WYgGVGNVdbJZhWD9da9OIgtsmu77w2sCiYJEvk-Z1zycS9RFSYUNc-3Hy0S0]--></g></svg>

<svg xmlns="http://www.w3.org/2000/svg" width="276" height="252" preserveAspectRatio="none" style="width:276px;height:252px"><rect width="192" height="39.789" x="7" y="106.79" fill="#3D176E" rx="2.5" ry="2.5" style="stroke:#000d19;stroke-width:.5"/><circle cx="22" cy="126.684" r="11" fill="#ADD1B2" style="stroke:#181818;stroke-width:1"/><path d="M24.969 132.325q-.578.297-1.219.438-.64.156-1.344.156-2.5 0-3.828-1.64-1.312-1.657-1.312-4.782t1.312-4.781q1.328-1.656 3.828-1.656.703 0 1.344.156.656.156 1.219.453v2.719q-.625-.579-1.219-.844-.594-.281-1.219-.281-1.343 0-2.031 1.078-.688 1.062-.688 3.156 0 2.094.688 3.172.688 1.062 2.031 1.062.625 0 1.219-.265.594-.281 1.219-.86v2.72Z"/><text x="41" y="132.57" fill="#D9B8FF" font-family="Helvetica" font-size="17" textLength="150">aws_ec2_instance</text><rect width="184" height="39.789" x="85" y="206.58" fill="#3D176E" rx="2.5" ry="2.5" style="stroke:#000d19;stroke-width:.5"/><circle cx="100" cy="226.475" r="11" fill="#ADD1B2" style="stroke:#181818;stroke-width:1"/><path d="M102.969 232.115q-.578.297-1.219.438-.64.156-1.344.156-2.5 0-3.828-1.64-1.312-1.657-1.312-4.782t1.312-4.781q1.328-1.656 3.828-1.656.703 0 1.344.156.656.156 1.219.453v2.719q-.625-.578-1.219-.844-.594-.281-1.219-.281-1.344 0-2.031 1.078-.688 1.062-.688 3.156 0 2.094.688 3.172.688 1.062 2.031 1.062.625 0 1.219-.265.594-.281 1.219-.86v2.72Z"/><text x="119" y="232.36" fill="#D9B8FF" font-family="Helvetica" font-size="17" textLength="142">aws_ec2_keypair</text><rect width="137" height="39.789" x="108.5" y="7" fill="#3D176E" rx="2.5" ry="2.5" style="stroke:#000d19;stroke-width:.5"/><circle cx="123.5" cy="26.895" r="11" fill="#ADD1B2" style="stroke:#181818;stroke-width:1"/><path d="M126.469 32.535q-.578.297-1.219.438-.64.156-1.344.156-2.5 0-3.828-1.64-1.312-1.657-1.312-4.782t1.312-4.781q1.328-1.656 3.828-1.656.703 0 1.344.156.656.156 1.219.453v2.719q-.625-.578-1.219-.844-.594-.281-1.219-.281-1.344 0-2.031 1.078-.688 1.062-.688 3.156 0 2.094.688 3.172.688 1.062 2.031 1.062.625 0 1.219-.265.594-.281 1.219-.86v2.72Z"/><text x="142.5" y="32.78" fill="#D9B8FF" font-family="Helvetica" font-size="17" textLength="95">aws_region</text><path fill="none" d="m117.62 147.01 41.33 54.61" style="stroke:#1a83af;stroke-width:2"/><path fill="#1A83AF" d="m162.41 205.2-2.238-9.591-.778 5.603-5.603-.777 8.619 4.765z" style="stroke:#1a83af;stroke-width:2"/><path fill="none" d="m162.38 47.22-41.33 54.61" style="stroke:#1a83af;stroke-width:2"/><path fill="#1A83AF" d="m117.59 105.41 8.63-4.746-5.605.765-.765-5.605-2.26 9.586z" style="stroke:#1a83af;stroke-width:2"/><path fill="none" d="M189.92 47c9.59 15.39 21.87 37.99 27.08 59.79 4.11 17.2 4.11 22.59 0 39.79-4.68 19.59-15.07 39.82-24.08 54.89" style="stroke:#1a83af;stroke-width:2"/><path fill="#1A83AF" d="m189.92 205.37 8.11-5.588-5.5 1.323-1.323-5.5-1.287 9.765z" style="stroke:#1a83af;stroke-width:2"/></svg>
